COLOR/action 16/16/list-remove.svg

<svg height="16" width="16" xmlns="http://www.w3.org/2000/svg"><g stroke-width="1.066667"><circle cx="8" cy="-8" fill="#bc1938" r="8" transform="rotate(90)"/><rect fill="#f4f4f4" height="2.285714" rx=".426667" ry=".380953" width="9.142858" x="3.428573" y="6.857129"/><path d="m8 0a8 8 0 0 0 -8 8 8 8 0 0 0 .00976563.2929688 8 8 0 0 1 7.99023437-7.7929688 8 8 0 0 1 7.990234 7.7070312 8 8 0 0 0 .009766-.2070312 8 8 0 0 0 -8-8z" fill="#fff" opacity=".3"/><path d="m8.0000195 16a8 8 0 0 0 7.9999995-8.0000004 8 8 0 0 0 -.0098-.292968 8 8 0 0 1 -7.9902345 7.7929684 8 8 0 0 1 -7.990234-7.7070314 8 8 0 0 0 -.00977.207031 8 8 0 0 0 8 8.0000004z" opacity=".2"/></g></svg>

<?xml version="1.0" encoding="UTF-8" standalone="no"?>
<svg
   xmlns:dc="http://purl.org/dc/elements/1.1/"
   xmlns:cc="http://creativecommons.org/ns#"
   xmlns:rdf="http://www.w3.org/1999/02/22-rdf-syntax-ns#"
   xmlns:svg="http://www.w3.org/2000/svg"
   xmlns="http://www.w3.org/2000/svg"
   xmlns:sodipodi="http://sodipodi.sourceforge.net/DTD/sodipodi-0.dtd"
   xmlns:inkscape="http://www.inkscape.org/namespaces/inkscape"
   height="16"
   width="16"
   version="1.1"
   id="svg6"
   sodipodi:docname="list-remove.svg"
   inkscape:version="0.92.4 (5da689c313, 2019-01-14)">
  <metadata
     id="metadata12">
    <rdf:RDF>
      <cc:Work
         rdf:about="">
        <dc:format>image/svg+xml</dc:format>
        <dc:type
           rdf:resource="http://purl.org/dc/dcmitype/StillImage" />
      </cc:Work>
    </rdf:RDF>
  </metadata>
  <defs
     id="defs10" />
  <sodipodi:namedview
     pagecolor="#ffffff"
     bordercolor="#666666"
     borderopacity="1"
     objecttolerance="10"
     gridtolerance="10"
     guidetolerance="10"
     inkscape:pageopacity="0"
     inkscape:pageshadow="2"
     inkscape:window-width="1920"
     inkscape:window-height="1016"
     id="namedview8"
     showgrid="false"
     inkscape:zoom="14.75"
     inkscape:cx="8"
     inkscape:cy="8"
     inkscape:window-x="0"
     inkscape:window-y="27"
     inkscape:window-maximized="1"
     inkscape:current-layer="svg6" />
  <circle
     cx="8"
     cy="-8"
     r="8"
     transform="rotate(90)"
     id="circle2"
     style="fill:#bc1938;stroke-width:1.06666672" />
  <rect
     height="2.2857141"
     rx="0.42666668"
     ry="0.38095254"
     width="9.1428576"
     x="3.4285729"
     y="6.8571286"
     id="rect4"
     style="fill:#f4f4f4;stroke-width:1.06666672" />
  <path
     style="fill:#ffffff;stroke-width:1.06666672;fill-opacity:1;opacity:0.3"
     d="M 8 0 A 8 8 0 0 0 0 8 A 8 8 0 0 0 0.009765625 8.2929688 A 8 8 0 0 1 8 0.5 A 8 8 0 0 1 15.990234 8.2070312 A 8 8 0 0 0 16 8 A 8 8 0 0 0 8 0 z "
     id="circle822" />
  <path
     id="path827"
     d="M 8.0000195,16 A 8,8 0 0 0 16.000019,7.9999996 8,8 0 0 0 15.990219,7.7070316 8,8 0 0 1 7.9999845,15.5 8,8 0 0 1 0.0097505,7.7929686 a 8,8 0 0 0 -0.00977,0.207031 8,8 0 0 0 8,8.0000004 z"
     style="opacity:0.2;fill:#000000;fill-opacity:1;stroke-width:1.06666672"
     inkscape:connector-curvature="0" />
</svg>
